assets/Cookie/Flat/cookie_flat.svg

<svg width="32" height="32" viewBox="0 0 32 32" fill="none" xmlns="http://www.w3.org/2000/svg">
<path d="M2 16C2 25.29 8.27 30 16 30C23.73 30 30 25.26 30 16C30 6.57 23.73 2 16 2C8.27 2 2 6.43 2 16Z" fill="#F3AD61"/>
<path d="M19.89 8.32001L20.51 8.36001C21.08 8.40001 21.56 7.92001 21.52 7.35001L21.48 6.74001C21.47 6.50001 21.39 6.25001 21.26 6.03001C20.87 5.41001 20.08 5.16001 19.41 5.44001C18.61 5.78001 18.27 6.72001 18.65 7.49001C18.88 7.99001 19.37 8.28001 19.89 8.32001Z" fill="#6D4534"/>
<path d="M26.92 14.61L26.96 13.99C27 13.42 26.52 12.94 25.95 12.98L25.34 13.02C25.1 13.03 24.85 13.11 24.63 13.24C24.01 13.63 23.76 14.42 24.04 15.09C24.38 15.89 25.32 16.23 26.09 15.85C26.59 15.62 26.88 15.13 26.92 14.61Z" fill="#6D4534"/>
<path d="M10.62 24.52L10.67 23.75C10.71 23.11 11.08 22.51 11.7 22.2C12.65 21.72 13.82 22.14 14.24 23.14C14.59 23.98 14.28 24.96 13.51 25.44C13.23 25.61 12.93 25.7 12.63 25.72L11.87 25.77C11.16 25.82 10.57 25.23 10.62 24.52Z" fill="#6D4534"/>
<path d="M20.4 15.19L20.43 14.73C20.53 13.22 19.28 11.97 17.76 12.06L17.31 12.09C16.86 12.11 16.41 12.24 15.99 12.49C14.75 13.22 14.22 14.78 14.77 16.11C15.42 17.7 17.27 18.37 18.78 17.62C19.76 17.15 20.34 16.2 20.4 15.19Z" fill="#6D4534"/>
<path d="M7.65 8.99994L7.68 9.41994C7.74 10.3299 8.27 11.1899 9.15 11.6299C10.52 12.3099 12.2 11.6999 12.79 10.2599C13.28 9.04994 12.81 7.62994 11.68 6.96994C11.3 6.74994 10.89 6.62994 10.48 6.60994L10.07 6.57994C8.7 6.48994 7.57 7.62994 7.65 8.99994Z" fill="#6D4534"/>
<path d="M24.26 22.82L24.28 23.18C24.36 24.35 23.38 25.33 22.21 25.25L21.86 25.23C21.51 25.21 21.16 25.11 20.83 24.92C19.86 24.35 19.46 23.14 19.88 22.11C20.39 20.88 21.82 20.35 23 20.94C23.76 21.3 24.21 22.03 24.26 22.82Z" fill="#6D4534"/>
<path d="M5.87001 16.92L5.91001 17.54C5.94001 18.06 6.24001 18.55 6.74001 18.78C7.51001 19.16 8.45001 18.82 8.79001 18.02C9.07001 17.35 8.82001 16.56 8.20001 16.17C7.98001 16.04 7.73001 15.96 7.49001 15.95L6.88001 15.91C6.31001 15.87 5.83001 16.35 5.87001 16.92Z" fill="#6D4534"/>
</svg>

<svg xmlns="http://www.w3.org/2000/svg" width="32" height="32" fill="none"><path fill="#F3AD61" d="M2 16c0 9.29 6.27 14 14 14s14-4.74 14-14c0-9.43-6.27-14-14-14S2 6.43 2 16Z"/><path fill="#6D4534" d="m19.89 8.32.62.04a.95.95 0 0 0 1.01-1.01l-.04-.61a1.55 1.55 0 0 0-.22-.71 1.51 1.51 0 0 0-1.85-.59c-.8.34-1.14 1.28-.76 2.05.23.5.72.79 1.24.83ZM26.92 14.61l.04-.62a.95.95 0 0 0-1.01-1.01l-.61.04c-.24.01-.49.09-.71.22a1.51 1.51 0 0 0-.59 1.85c.34.8 1.28 1.14 2.05.76.5-.23.79-.72.83-1.24ZM10.62 24.52l.05-.77c.04-.64.41-1.24 1.03-1.55a1.85 1.85 0 0 1 2.54.94c.35.84.04 1.82-.73 2.3-.28.17-.58.26-.88.28l-.76.05c-.71.05-1.3-.54-1.25-1.25ZM20.4 15.19l.03-.46c.1-1.51-1.15-2.76-2.67-2.67l-.45.03c-.45.02-.9.15-1.32.4a2.93 2.93 0 0 0-1.22 3.62c.65 1.59 2.5 2.26 4.01 1.51.98-.47 1.56-1.42 1.62-2.43ZM7.65 9l.03.42c.06.91.59 1.77 1.47 2.21 1.37.68 3.05.07 3.64-1.37.49-1.21.02-2.63-1.11-3.29a2.65 2.65 0 0 0-1.2-.36l-.41-.03C8.7 6.49 7.57 7.63 7.65 9ZM24.26 22.82l.02.36c.08 1.17-.9 2.15-2.07 2.07l-.35-.02c-.35-.02-.7-.12-1.03-.31a2.278 2.278 0 0 1-.95-2.81A2.272 2.272 0 0 1 23 20.94c.76.36 1.21 1.09 1.26 1.88ZM5.87 16.92l.04.62c.03.52.33 1.01.83 1.24.77.38 1.71.04 2.05-.76.28-.67.03-1.46-.59-1.85a1.55 1.55 0 0 0-.71-.22l-.61-.04a.95.95 0 0 0-1.01 1.01Z"/></svg>
